lib/svgs/search.svg

<svg xmlns="http://www.w3.org/2000/svg" viewBox="0 0 20 20">
    <path fill="#000" fill-rule="evenodd" d="M17.824,15.397625 L14.37,11.943625 C13.851,11.424625 13.081,11.313625 12.45,11.599625 L12.027,11.176625 C12.836,10.175625 13.298,8.95262502 13.298,7.64762502 C13.298,6.13862502 12.711,4.71962502 11.644,3.65262502 C9.44,1.44862502 5.857,1.44962502 3.654,3.65262502 C2.587,4.71962502 2,6.13862502 2,7.64762502 C2,9.15562502 2.587,10.574625 3.654,11.641625 C4.756,12.742625 6.202,13.293625 7.649,13.293625 C8.905,13.293625 10.146,12.852625 11.176,12.023625 L11.6,12.447625 C11.5,12.667625 11.444,12.906625 11.444,13.155625 C11.444,13.614625 11.622,14.045625 11.945,14.367625 L15.399,17.821625 C15.511,17.935625 15.664,17.997625 15.823,17.997625 C15.982,17.997625 16.135,17.935625 16.247,17.821625 L17.824,16.244625 C18.058,16.010625 18.058,15.630625 17.824,15.397625 L17.824,15.397625 L17.824,15.397625 L17.824,15.397625 Z M15.823,16.549625 L12.793,13.520625 C12.697,13.423625 12.644,13.293625 12.644,13.155625 C12.644,13.017625 12.697,12.887625 12.793,12.791625 C12.893,12.691625 13.025,12.641625 13.157,12.641625 C13.289,12.641625 13.421,12.691625 13.521,12.791625 L16.551,15.820625 L15.823,16.549625 L15.823,16.549625 L15.823,16.549625 L15.823,16.549625 Z M4.503,10.793625 C2.768,9.05862502 2.768,6.23662502 4.503,4.50162502 C5.37,3.63362502 6.51,3.19962502 7.649,3.19962502 C8.788,3.19962502 9.928,3.63362502 10.795,4.50162502 C12.53,6.23662502 12.53,9.05862502 10.795,10.793625 C9.06,12.527625 6.238,12.528625 4.503,10.793625 L4.503,10.793625 L4.503,10.793625 L4.503,10.793625 Z"/>
</svg>

<svg xmlns="http://www.w3.org/2000/svg" viewBox="0 0 20 20">
    <path fill="#000" fill-rule="evenodd" d="M17.824 15.398l-3.454-3.454a1.714 1.714 0 0 0-1.92-.344l-.423-.423a5.589 5.589 0 0 0-.383-7.524A5.655 5.655 0 0 0 2 7.648a5.634 5.634 0 0 0 5.649 5.646 5.628 5.628 0 0 0 3.527-1.27l.424.424a1.706 1.706 0 0 0 .345 1.92l3.454 3.454a.593.593 0 0 0 .424.176.593.593 0 0 0 .424-.176l1.577-1.577a.599.599 0 0 0 0-.847m-2.001 1.152l-3.03-3.03a.516.516 0 0 1 .728-.728l3.03 3.029-.728.729m-11.32-5.756a4.454 4.454 0 0 1 6.292-6.292 4.454 4.454 0 0 1-6.292 6.292"/>
</svg>
